static/img/kroki/eaa793676b8ea7301b5c3ed633287e94.svg

<?xml version="1.0" encoding="us-ascii" standalone="no"?><svg xmlns="http://www.w3.org/2000/svg" xmlns:xlink="http://www.w3.org/1999/xlink" contentStyleType="text/css" height="152px" preserveAspectRatio="none" style="width:389px;height:152px;" version="1.1" viewBox="0 0 389 152" width="389px" zoomAndPan="magnify"><defs/><g><!--class kubernetes_cluster--><g id="elem_kubernetes_cluster"><rect codeLine="22" fill="#3D176E" height="39.7891" id="kubernetes_cluster" rx="2.5" ry="2.5" style="stroke:#000D19;stroke-width:0.5;" width="201" x="94" y="7"/><ellipse cx="109" cy="26.8945" fill="#ADD1B2" rx="11" ry="11" style="stroke:#181818;stroke-width:1.0;"/><path d="M111.9688,32.5352 Q111.3906,32.832 110.75,32.9727 Q110.1094,33.1289 109.4063,33.1289 Q106.9063,33.1289 105.5781,31.4883 Q104.2656,29.832 104.2656,26.707 Q104.2656,23.582 105.5781,21.9258 Q106.9063,20.2695 109.4063,20.2695 Q110.1094,20.2695 110.75,20.4258 Q111.4063,20.582 111.9688,20.8789 L111.9688,23.5977 Q111.3438,23.0195 110.75,22.7539 Q110.1563,22.4727 109.5313,22.4727 Q108.1875,22.4727 107.5,23.5508 Q106.8125,24.6133 106.8125,26.707 Q106.8125,28.8008 107.5,29.8789 Q108.1875,30.9414 109.5313,30.9414 Q110.1563,30.9414 110.75,30.6758 Q111.3438,30.3945 111.9688,29.8164 L111.9688,32.5352 Z " fill="#000000"/><text fill="#D9B8FF" font-family="Helvetica" font-size="17" lengthAdjust="spacing" textLength="159" x="128" y="32.7798">kubernetes_cluster</text></g><!--class kubernetes_priority_level_configuration--><g id="elem_kubernetes_priority_level_configuration"><rect codeLine="24" fill="#3D176E" height="39.7891" id="kubernetes_priority_level_configuration" rx="2.5" ry="2.5" style="stroke:#000D19;stroke-width:0.5;" width="375" x="7" y="106.79"/><ellipse cx="22" cy="126.6845" fill="#ADD1B2" rx="11" ry="11" style="stroke:#181818;stroke-width:1.0;"/><path d="M24.9688,132.3252 Q24.3906,132.622 23.75,132.7627 Q23.1094,132.9189 22.4063,132.9189 Q19.9063,132.9189 18.5781,131.2783 Q17.2656,129.622 17.2656,126.497 Q17.2656,123.372 18.5781,121.7158 Q19.9063,120.0595 22.4063,120.0595 Q23.1094,120.0595 23.75,120.2158 Q24.4063,120.372 24.9688,120.6689 L24.9688,123.3877 Q24.3438,122.8095 23.75,122.5439 Q23.1563,122.2627 22.5313,122.2627 Q21.1875,122.2627 20.5,123.3408 Q19.8125,124.4033 19.8125,126.497 Q19.8125,128.5908 20.5,129.6689 Q21.1875,130.7314 22.5313,130.7314 Q23.1563,130.7314 23.75,130.4658 Q24.3438,130.1845 24.9688,129.6064 L24.9688,132.3252 Z " fill="#000000"/><text fill="#D9B8FF" font-family="Helvetica" font-size="17" lengthAdjust="spacing" textLength="333" x="41" y="132.5698">kubernetes_priority_level_configuration</text></g><!--link kubernetes_cluster to kubernetes_priority_level_configuration--><g id="link_kubernetes_cluster_kubernetes_priority_level_configuration"><path codeLine="26" d="M194.5,47.22 C194.5,64.36 194.5,83.27 194.5,100.41 " fill="none" id="kubernetes_cluster-to-kubernetes_priority_level_configuration" style="stroke:#1A83AF;stroke-width:2.0;"/><polygon fill="#1A83AF" points="194.5,106.41,198.5,97.41,194.5,101.41,190.5,97.41,194.5,106.41" style="stroke:#1A83AF;stroke-width:2.0;"/></g><!--SRC=[ZP9FIyD04CNl_HGBEHSIWwQv26cWwAM8zIOIjjdPTibcDynEMghutMrQbJNf7w_pVlFcpJ1h9O11tT2ErL0l0Tt8LSeq77dDCaIxpQsso08fkOoJlZYpXgu2Sru3Um2z0L8bxnClQrLM1fnZDvuqvMMrGjiQSRGdvCRj9J3aKRdcpcL4g9OjWHT6fCk9b7soRnh48ahkO81P583VI1Y68ahxoDLH5_V-9HRg7LZa7srk2GOn1oCErCMK7U6572pwev_D-CI5K6R5RhtQyp4J6i0_zSMQ2xljQCcryySu0WHBkmRomLQGJeHCJiAFv-2oknohslsZ6Y1mHQdRherzZ3w7OeFAeg9TeM43kYYjaMhL8YTbpQ7ZXD7uDOYoIPpDtiRt__Nw0W00]--></g></svg>

<svg xmlns="http://www.w3.org/2000/svg" width="389" height="152" viewBox="0 0 389 152"><rect width="201" height="39.789" x="94" y="7" fill="#3D176E" rx="2.5" ry="2.5" style="stroke:#000d19;stroke-width:.5"/><circle cx="109" cy="26.895" r="11" fill="#ADD1B2" style="stroke:#181818;stroke-width:1"/><path d="M111.969 32.535q-.578.297-1.219.438-.64.156-1.344.156-2.5 0-3.828-1.64-1.312-1.657-1.312-4.782t1.312-4.781q1.328-1.656 3.828-1.656.703 0 1.344.156.656.156 1.219.453v2.719q-.625-.578-1.219-.844-.594-.281-1.219-.281-1.344 0-2.031 1.078-.687 1.062-.687 3.156t.687 3.172q.688 1.062 2.031 1.062.625 0 1.219-.265.594-.281 1.219-.86z"/><text x="128" y="32.78" fill="#D9B8FF" font-family="Helvetica" font-size="17" textLength="159">kubernetes_cluster</text><rect width="375" height="39.789" x="7" y="106.79" fill="#3D176E" rx="2.5" ry="2.5" style="stroke:#000d19;stroke-width:.5"/><circle cx="22" cy="126.684" r="11" fill="#ADD1B2" style="stroke:#181818;stroke-width:1"/><path d="M24.969 132.325q-.578.297-1.219.438-.64.156-1.344.156-2.5 0-3.828-1.64-1.312-1.657-1.312-4.782t1.312-4.781q1.328-1.656 3.828-1.656.703 0 1.344.156.656.156 1.219.453v2.719q-.625-.579-1.219-.844-.594-.281-1.219-.281-1.343 0-2.031 1.078-.687 1.062-.687 3.156t.687 3.172q.688 1.062 2.031 1.062.625 0 1.219-.265.594-.281 1.219-.86z"/><text x="41" y="132.57" fill="#D9B8FF" font-family="Helvetica" font-size="17" textLength="333">kubernetes_priority_level_configuration</text><path fill="none" d="M194.5 47.22v53.19" style="stroke:#1a83af;stroke-width:2"/><path fill="#1A83AF" d="m194.5 106.41 4-9-4 4-4-4z" style="stroke:#1a83af;stroke-width:2"/></svg>
